X:4407
T:Moyasta Junction
C:Brendan Power
O:England
M:6/8
L:1/8
Q:1/4=166
K:C
V:1
Bd |eA AB AA |eA AA Bd |eA AB AA |
ed BG Bd  |eA AB AA |eA AA BA |GA Bd2 e|
d BA A :|B d|e aa g2 e|d BA GB d|
e aa g2 a|b ag a2 g |e aa ba g|e dB GB A|
G AB d2 e|d BA AB d |e aa g2 e|d BA GB d|
e aa g2 a|b ag a2 g |e c'c' ba g|e dB GB A|
G AB d2 e|d BA A|]
